public/avatar/shoe/177.svg

<svg xmlns:xlink="http://www.w3.org/1999/xlink" height="38.3" width="36.05" xmlns="http://www.w3.org/2000/svg"><g transform="translate(23.8 14.85)"><use height="16.55" transform="translate(-14.15 -3.7)" width="22.6" xlink:href="#a"/><use height="14.45" transform="translate(-12.9 -2.7)" width="20.1" xlink:href="#b"/><use height="10.5" transform="translate(-8.2 -1)" width="14.2" xlink:href="#c"/><use height="6.3" transform="translate(-7.9 2.8)" width="9.05" xlink:href="#d"/><use height="7.8" transform="translate(-12.75 1.3)" width="13.2" xlink:href="#e"/><use height="6.55" transform="translate(-12.9 5.2)" width="20.1" xlink:href="#f"/></g><defs><path d="M7-6.6h.05l.8.45.2.05L11.3.6v2.25l-.1.1-.05.2v.15l-.05.05v.15l-.75.65h-.05l-.65.55v.1H9.6q-.45.2-.85.45v.05l-.5.25-.5.25H7.7l-.65.3h-.1l-.35.15v.05h-.05l-1.2.45H5.3l-2.9.85h-.05l-3.45.7h-6.1l-.1-.1-1.25-.2h-.05l-1.15-.4h-.15l-.05-.05-.25-.2-.05.05-.2-.15-.05-.05-.1-.05-.2-.3-.05-.1-.1-.3v-.1l-.1-.2-.05-.3-.05-1.25-.05-.15-.1-.05v-.9l.1-.05.1-.35h.05l.1-.4.05-.05V2.6l.25-.4h.05l.3-.5v-.05L-9 .1l1.3-1.15.8-1-.05.05.35-.45.05-.05.95-1.05-.05-.05v-.05q-.5-1.2-.2-2.05.15-.75.7-1.25V-7q.6-.7 1.5-.95l1.7-.3 1.75.3h-.05q.65.15 1.1.5l.35.3h.05l1.4-.15h.1l1.5.1h.1L5.6-7h.05l.5.1v.05L7-6.6" fill-rule="evenodd" transform="translate(11.3 8.25)" id="g"/><path d="m.6-6.3.15.15.25.5.1.25-.05-.05q.15.75-.2 1.75v.05L.1-2.4l-.25.3-.05.1Q-1.4-.6-3 .35-5.55 1.8-7.65.7l1.5-2.05.05-.1.35-.45-.05.1 1.05-1.15h-.05l.1-.1.15-.15v-.25l-.05-.2-.15-.35-.15-1.4.45-.85h.05l1.05-.7h.05l1.35-.25 1.4.25h.05l.75.35.35.3m4.45.5h.3l.9.3h.05l.2.1.65.25.1.15L9.95.7l.1.2v1.75L10 2.7v.15h-.05l-.05.05V3l-.3.3-1.4 1-.5.2h-.05l-.4.25-.4.15H6.7l-.15.1H6.5l-1.55.65L3.4 6l-3.3.8-1.4.3-4.45.15-2.5-.35-.9-.3-.2-.1-.25-.1h-.05l-.05-.05-.05-.15-.05-.25V5.9l-.1-.15-.05-1.3-.05-.05-.05-.2v-.35l.1-.25v-.1h.05l.05-.3.05.05.15-.35 1.2-1.5.1.05h-.05q2.6 1.6 5.9-.25Q-.55.1.75-1.65l.15-.1.1-.2.75-1.3.05-.05q.5-1.35.25-2.35l-.1-.3.75-.1h.05l2.3.25" fill="#c5b37e" fill-rule="evenodd" transform="translate(10.05 7.2)" id="h"/><path d="M1.6-1.45q1.7-1.3 2.65-3.2l.25-.6h.05l.2.1q.35.1.65.25l.1.15.2.5-.15.35Q4.3-1.65 1.7.35L.7 1l1.55-2.4-.65-.05m-8.7 6.7.05-.1.3-.3 2.55-.5-.85.8-2.05.1m13.25-8.6v-.05l.95 2.1Q6.2 1 4.35 2.35L1.5 4.05l-.2.05-4.1.85.65-.55 2.8-1.6q2.8-1.35 3.9-2.75 1.1-1.25 1.6-3.4" fill="#cc2800" fill-rule="evenodd" transform="translate(7.1 5.25)" id="i"/><path d="m3.85-3.1.65.05-1.55 2.4-.05.1-.2.1Q-.1 1.2-1.8 2.65l-.15.05-2.55.5h-.05q1.7-2 6.45-5l1.9-1.3h.05" fill="#ff4617" fill-rule="evenodd" transform="translate(4.55 3.1)" id="j"/><path d="M.3-.35Q-2.25 1.1-4.35 0l1.5-2.05.05-.1.35-.45-.05.1 1.05-1.15h-.05l.1-.1.15-.15.85.15L3.1-2.7Q1.9-1.3.3-.35m3.9-2.1.1-.2 2.3.25-1.9 1.3q-4.75 3-6.45 5h-.6Q-4.7 3.85-6.6 2.8l.05-.3.05.05.15-.35 1.2-1.5.1.05h-.05Q-2.5 2.35.8.5 2.75-.6 4.05-2.35l.15-.1M5.7.15Q3.7 2.3 1 3.35 2.7 1.9 5.5.25l.2-.1" fill="#fff" fill-rule="evenodd" transform="translate(6.6 3.9)" id="k"/><path d="M3.25-.15q4.85-1.4 6.7-3.1l.1.2v1.75l-.05.05v.15h-.05l-.05.05v.1l-.3.3-1.4 1-.5.2h-.05l-.4.25-.4.15H6.7l-.15.1H6.5l-1.55.65-1.55.35-3.3.8-1.4.3-4.15.15-2.8-.35-.9-.3-.2-.1-.25-.1h-.05l-.05-.05-.05-.15L-9.8 2v-.05l-.1-.15-.05-1.3-.05-.05-.05-.2v-.1q1.9.9 4.7.9l4.3-.3 4.1-.85.2-.05" fill="#300" fill-rule="evenodd" transform="translate(10.05 3.25)" id="l"/><use height="16.55" width="22.6" xlink:href="#g" id="a"/><use height="14.45" width="20.1" xlink:href="#h" id="b"/><use height="10.5" width="14.2" xlink:href="#i" id="c"/><use height="6.3" width="9.05" xlink:href="#j" id="d"/><use height="7.8" width="13.2" xlink:href="#k" id="e"/><use height="6.55" width="20.1" xlink:href="#l" id="f"/></defs></svg>

<?xml version="1.0" encoding="UTF-8" standalone="no"?>
<svg xmlns:xlink="http://www.w3.org/1999/xlink" height="38.3px" width="36.05px" xmlns="http://www.w3.org/2000/svg">
  <g transform="matrix(1.0, 0.0, 0.0, 1.0, 23.8, 14.85)">
    <use height="16.55" transform="matrix(1.0, 0.0, 0.0, 1.0, -14.15, -3.7)" width="22.6" xlink:href="#sprite0"/>
    <use height="14.45" transform="matrix(1.0, 0.0, 0.0, 1.0, -12.9, -2.7)" width="20.1" xlink:href="#sprite1"/>
    <use height="10.5" transform="matrix(1.0, 0.0, 0.0, 1.0, -8.2, -1.0)" width="14.2" xlink:href="#sprite2"/>
    <use height="6.3" transform="matrix(1.0, 0.0, 0.0, 1.0, -7.9, 2.8)" width="9.05" xlink:href="#sprite3"/>
    <use height="7.8" transform="matrix(1.0, 0.0, 0.0, 1.0, -12.75, 1.3)" width="13.2" xlink:href="#sprite4"/>
    <use height="6.55" transform="matrix(1.0, 0.0, 0.0, 1.0, -12.9, 5.2)" width="20.1" xlink:href="#sprite5"/>
  </g>
  <defs>
    <g id="sprite0" transform="matrix(1.0, 0.0, 0.0, 1.0, 11.3, 8.25)">
      <use height="16.55" transform="matrix(1.0, 0.0, 0.0, 1.0, -11.3, -8.25)" width="22.6" xlink:href="#shape0"/>
    </g>
    <g id="shape0" transform="matrix(1.0, 0.0, 0.0, 1.0, 11.3, 8.25)">
      <path d="M7.0 -6.6 L7.05 -6.6 7.85 -6.15 8.05 -6.1 11.3 0.6 11.3 2.85 11.2 2.95 11.15 3.15 11.15 3.3 11.1 3.35 11.1 3.5 10.35 4.15 10.3 4.15 9.65 4.7 9.65 4.8 9.6 4.8 Q9.15 5.0 8.75 5.25 L8.75 5.3 8.25 5.55 7.75 5.8 7.7 5.8 7.05 6.1 6.95 6.1 6.6 6.25 6.6 6.3 6.55 6.3 5.35 6.75 5.3 6.75 2.4 7.6 2.35 7.6 -1.1 8.3 -7.2 8.3 -7.3 8.2 -8.55 8.0 -8.6 8.0 -9.75 7.6 -9.9 7.6 -9.95 7.55 -10.2 7.35 -10.25 7.4 -10.45 7.25 -10.5 7.2 -10.6 7.15 -10.8 6.85 -10.85 6.75 -10.95 6.45 -10.95 6.35 -11.05 6.15 -11.1 5.85 -11.15 4.6 -11.2 4.45 -11.3 4.4 -11.3 3.5 -11.2 3.45 -11.1 3.1 -11.05 3.1 -10.95 2.7 -10.9 2.65 -10.9 2.6 -10.65 2.2 -10.6 2.2 -10.3 1.7 -10.3 1.65 -9.0 0.1 -7.7 -1.05 -6.9 -2.05 -6.95 -2.0 -6.6 -2.45 -6.55 -2.5 -5.6 -3.55 -5.65 -3.6 -5.65 -3.65 Q-6.15 -4.85 -5.85 -5.7 -5.7 -6.45 -5.15 -6.95 L-5.15 -7.0 Q-4.55 -7.7 -3.65 -7.95 L-1.95 -8.25 -0.2 -7.95 -0.25 -7.95 Q0.4 -7.8 0.85 -7.45 L1.2 -7.15 1.25 -7.15 2.65 -7.3 2.75 -7.3 4.25 -7.2 4.35 -7.2 5.6 -7.0 5.65 -7.0 6.15 -6.9 6.15 -6.85 7.0 -6.6" fill="#000000" fill-rule="evenodd" stroke="none"/>
    </g>
    <g id="sprite1" transform="matrix(1.0, 0.0, 0.0, 1.0, 10.05, 7.2)">
      <use height="14.45" transform="matrix(1.0, 0.0, 0.0, 1.0, -10.05, -7.2)" width="20.1" xlink:href="#shape1"/>
    </g>
    <g id="shape1" transform="matrix(1.0, 0.0, 0.0, 1.0, 10.05, 7.2)">
      <path d="M0.6 -6.3 L0.75 -6.15 1.0 -5.65 1.1 -5.4 1.05 -5.45 Q1.2 -4.7 0.85 -3.7 L0.85 -3.65 0.1 -2.4 -0.15 -2.1 -0.2 -2.0 Q-1.4 -0.6 -3.0 0.35 -5.55 1.8 -7.65 0.7 L-6.15 -1.35 -6.1 -1.45 -5.75 -1.9 -5.8 -1.8 -4.75 -2.95 -4.8 -2.95 -4.7 -3.05 -4.55 -3.2 -4.55 -3.4 -4.55 -3.45 -4.6 -3.65 -4.75 -4.0 -4.9 -5.4 -4.45 -6.25 -4.4 -6.25 -3.35 -6.95 -3.3 -6.95 -1.95 -7.2 -0.55 -6.95 -0.5 -6.95 0.25 -6.6 0.6 -6.3 M5.05 -5.8 L5.35 -5.8 6.25 -5.5 6.3 -5.5 6.5 -5.4 7.15 -5.15 7.25 -5.0 9.95 0.7 10.05 0.9 10.05 2.65 10.0 2.7 10.0 2.85 9.95 2.85 9.9 2.9 9.9 3.0 9.6 3.3 8.2 4.3 7.7 4.5 7.65 4.5 7.25 4.75 6.85 4.9 6.7 4.9 6.55 5.0 6.5 5.0 4.95 5.65 3.4 6.0 0.1 6.8 -1.3 7.1 -5.75 7.25 -8.25 6.9 -9.15 6.6 -9.35 6.5 -9.6 6.4 -9.65 6.4 -9.7 6.35 -9.75 6.2 -9.8 5.95 -9.8 5.9 -9.9 5.75 -9.95 4.45 -10.0 4.4 -10.05 4.2 -10.05 3.85 -9.95 3.6 -9.95 3.5 -9.9 3.5 -9.85 3.2 -9.8 3.25 -9.65 2.9 -8.45 1.4 -8.35 1.45 -8.4 1.45 Q-5.8 3.05 -2.5 1.2 -0.55 0.1 0.75 -1.65 L0.9 -1.75 1.0 -1.95 1.75 -3.25 1.8 -3.3 Q2.3 -4.65 2.05 -5.65 L1.95 -5.95 2.7 -6.05 2.75 -6.05 5.05 -5.8" fill="#c5b37e" fill-rule="evenodd" stroke="none"/>
    </g>
    <g id="sprite2" transform="matrix(1.0, 0.0, 0.0, 1.0, 7.1, 5.25)">
      <use height="10.5" transform="matrix(1.0, 0.0, 0.0, 1.0, -7.1, -5.25)" width="14.2" xlink:href="#shape2"/>
    </g>
    <g id="shape2" transform="matrix(1.0, 0.0, 0.0, 1.0, 7.1, 5.25)">
      <path d="M1.6 -1.45 Q3.3 -2.75 4.25 -4.65 L4.5 -5.25 4.55 -5.25 4.75 -5.15 Q5.1 -5.05 5.4 -4.9 L5.5 -4.75 5.7 -4.25 5.55 -3.9 Q4.3 -1.65 1.7 0.35 L0.7 1.0 2.25 -1.4 1.6 -1.45 M-7.1 5.25 L-7.05 5.15 -6.75 4.85 -4.2 4.35 -5.05 5.15 -7.1 5.25 M6.15 -3.35 L6.15 -3.4 7.1 -1.3 Q6.2 1.0 4.35 2.35 L1.5 4.05 1.3 4.1 -2.8 4.95 -2.15 4.4 0.65 2.8 Q3.45 1.45 4.55 0.05 5.65 -1.2 6.15 -3.35" fill="#cc2800" fill-rule="evenodd" stroke="none"/>
    </g>
    <g id="sprite3" transform="matrix(1.0, 0.0, 0.0, 1.0, 4.55, 3.1)">
      <use height="6.3" transform="matrix(1.0, 0.0, 0.0, 1.0, -4.55, -3.1)" width="9.05" xlink:href="#shape3"/>
    </g>
    <g id="shape3" transform="matrix(1.0, 0.0, 0.0, 1.0, 4.55, 3.1)">
      <path d="M3.85 -3.1 L4.5 -3.05 2.95 -0.65 2.9 -0.55 2.7 -0.45 Q-0.1 1.2 -1.8 2.65 L-1.95 2.7 -4.5 3.2 -4.55 3.2 Q-2.85 1.2 1.9 -1.8 L3.8 -3.1 3.85 -3.1" fill="#ff4617" fill-rule="evenodd" stroke="none"/>
    </g>
    <g id="sprite4" transform="matrix(1.0, 0.0, 0.0, 1.0, 6.6, 3.9)">
      <use height="7.8" transform="matrix(1.0, 0.0, 0.0, 1.0, -6.6, -3.9)" width="13.2" xlink:href="#shape4"/>
    </g>
    <g id="shape4" transform="matrix(1.0, 0.0, 0.0, 1.0, 6.6, 3.9)">
      <path d="M0.3 -0.35 Q-2.25 1.1 -4.35 0.0 L-2.85 -2.05 -2.8 -2.15 -2.45 -2.6 -2.5 -2.5 -1.45 -3.65 -1.5 -3.65 -1.4 -3.75 -1.25 -3.9 -0.4 -3.75 3.1 -2.7 Q1.9 -1.3 0.3 -0.35 M4.2 -2.45 L4.3 -2.65 6.6 -2.4 4.7 -1.1 Q-0.05 1.9 -1.75 3.9 L-2.35 3.9 Q-4.7 3.85 -6.6 2.8 L-6.55 2.5 -6.5 2.55 -6.35 2.2 -5.15 0.7 -5.05 0.75 -5.1 0.75 Q-2.5 2.35 0.8 0.5 2.75 -0.6 4.05 -2.35 L4.2 -2.45 M5.7 0.15 Q3.7 2.3 1.0 3.35 2.7 1.9 5.5 0.25 L5.7 0.15" fill="#ffffff" fill-rule="evenodd" stroke="none"/>
    </g>
    <g id="sprite5" transform="matrix(1.0, 0.0, 0.0, 1.0, 10.05, 3.25)">
      <use height="6.55" transform="matrix(1.0, 0.0, 0.0, 1.0, -10.05, -3.25)" width="20.1" xlink:href="#shape5"/>
    </g>
    <g id="shape5" transform="matrix(1.0, 0.0, 0.0, 1.0, 10.05, 3.25)">
      <path d="M3.25 -0.15 Q8.1 -1.55 9.95 -3.25 L10.05 -3.05 10.05 -1.3 10.0 -1.25 10.0 -1.1 9.95 -1.1 9.9 -1.05 9.9 -0.95 9.6 -0.65 8.2 0.35 7.7 0.55 7.65 0.55 7.25 0.8 6.85 0.95 6.7 0.95 6.55 1.05 6.5 1.05 4.95 1.7 3.4 2.05 0.1 2.85 -1.3 3.15 -5.45 3.3 -8.25 2.95 -9.15 2.65 -9.35 2.55 -9.6 2.45 -9.65 2.45 -9.7 2.4 -9.75 2.25 -9.8 2.0 -9.8 1.95 -9.9 1.8 -9.95 0.5 -10.0 0.45 -10.05 0.25 -10.05 0.15 Q-8.15 1.05 -5.35 1.05 L-1.05 0.75 3.05 -0.1 3.25 -0.15" fill="#330000" fill-rule="evenodd" stroke="none"/>
    </g>
  </defs>
</svg>
